Sweet-Rainbow/icons/franz.svg

<?xml version="1.0" encoding="UTF-8" standalone="no"?>
<!-- Generator: Gravit.io -->

<svg
   xmlns:dc="http://purl.org/dc/elements/1.1/"
   xmlns:cc="http://creativecommons.org/ns#"
   xmlns:rdf="http://www.w3.org/1999/02/22-rdf-syntax-ns#"
   xmlns:svg="http://www.w3.org/2000/svg"
   xmlns="http://www.w3.org/2000/svg"
   xmlns:sodipodi="http://sodipodi.sourceforge.net/DTD/sodipodi-0.dtd"
   xmlns:inkscape="http://www.inkscape.org/namespaces/inkscape"
   style="isolation:isolate"
   viewBox="0 0 36 36"
   width="48"
   height="48"
   version="1.1"
   id="svg9"
   sodipodi:docname="franz.svg"
   inkscape:version="0.92.4 (5da689c313, 2019-01-14)">
  <metadata
     id="metadata15">
    <rdf:RDF>
      <cc:Work
         rdf:about="">
        <dc:format>image/svg+xml</dc:format>
        <dc:type
           rdf:resource="http://purl.org/dc/dcmitype/StillImage" />
        <dc:title></dc:title>
      </cc:Work>
    </rdf:RDF>
  </metadata>
  <defs
     id="defs13" />
  <sodipodi:namedview
     pagecolor="#ffffff"
     bordercolor="#666666"
     borderopacity="1"
     objecttolerance="10"
     gridtolerance="10"
     guidetolerance="10"
     inkscape:pageopacity="0"
     inkscape:pageshadow="2"
     inkscape:window-width="640"
     inkscape:window-height="480"
     id="namedview11"
     showgrid="false"
     inkscape:zoom="29.365243"
     inkscape:cx="25.325443"
     inkscape:cy="32"
     inkscape:current-layer="svg9"
     units="px" />
  <linearGradient
     id="_lgradient_16"
     x1="-3.8208334e-05"
     y1="0.50000006"
     x2="0.99996185"
     y2="0.50000006"
     gradientTransform="scale(48)"
     gradientUnits="userSpaceOnUse">
    <stop
       offset="0%"
       stop-opacity="1"
       style="stop-color:rgb(0,198,255)"
       id="stop2" />
    <stop
       offset="98.69565217391305%"
       stop-opacity="1"
       style="stop-color:rgb(0,114,255)"
       id="stop4" />
  </linearGradient>
  <g
     id="g826"
     transform="scale(0.75)">
    <path
       id="path7"
       d="m 30.22,4.99 v 0 c 1.049,0.342 2.178,-0.231 2.52,-1.28 v 0 C 33.082,2.661 32.509,1.532 31.46,1.19 v 0 C 29.06,0.4 26.55,0 24.03,0 15.68,0 7.9,4.34 3.54,11.46 1.23,15.22 0,19.56 0,23.97 0,32.32 4.34,40.1 11.46,44.46 15.22,46.77 19.55,48 23.97,48 32.32,48 40.1,43.66 44.46,36.54 46.77,32.78 48,28.45 48,24.03 48,18.39 46.02,12.92 42.41,8.59 v 0 C 41.698,7.746 40.432,7.634 39.585,8.34 v 0 c -0.847,0.706 -0.957,1.97 -0.245,2.82 v 0 C 42.35,14.77 44,19.32 44,24.03 44,27.7 42.98,31.31 41.05,34.45 37.41,40.38 30.93,44 23.97,44 20.29,44 16.69,42.98 13.55,41.05 7.62,37.41 4,30.93 4,23.97 4,20.3 5.02,16.69 6.95,13.55 10.59,7.62 17.07,4 24.03,4 c 2.1,0 4.19,0.33 6.19,0.99 z m 1.319,25.679 c -0.361,0 -0.724,-0.02 -1.086,-0.061 v 2.418 c 0,0.766 0.817,1.174 1.941,1.174 1.124,0 3.678,0.205 4.7,-1.583 0.525,-0.92 0.861,-1.947 1.064,-2.808 -1.787,0.563 -4.028,0.86 -6.619,0.86 z m 3.476,-8.16 c 0.704,0.548 2.252,1.065 3.225,1.084 -0.109,-2.56 -0.227,-5.444 -0.227,-6.403 0,-1.788 0.052,-3.397 -0.511,-3.397 -1.43,0 -1.072,6.206 -2.86,7.739 -0.112,0.096 -0.227,0.201 -0.343,0.316 0.27,0.272 0.518,0.507 0.716,0.661 z m -24.854,1.053 c 0.956,-0.121 2.211,-0.576 2.824,-1.053 0.244,-0.19 0.564,-0.502 0.908,-0.857 -0.045,-0.041 -0.091,-0.082 -0.135,-0.12 -1.788,-1.533 -1.431,-7.74 -2.861,-7.74 -0.562,0 -0.511,1.61 -0.511,3.398 0,0.955 -0.117,3.82 -0.225,6.372 z m 6.3,7.107 c -2.387,0 -4.477,-0.251 -6.188,-0.731 0.205,0.833 0.533,1.805 1.033,2.679 1.021,1.788 3.576,1.583 4.699,1.583 1.124,0 1.942,-0.408 1.942,-1.174 v -2.47 c -0.496,0.075 -0.992,0.113 -1.486,0.113 z m 23.513,-5.943 c -0.303,0 -0.624,0.104 -0.955,0.309 -0.048,0.029 -0.24,0.124 -0.726,0.124 -1.313,0 -3.254,-0.647 -4.239,-1.414 -0.492,-0.383 -1.102,-1.03 -1.748,-1.714 -1.357,-1.44 -2.64,-2.801 -3.749,-2.801 -0.789,0 -1.697,0.368 -2.576,0.724 -0.732,0.296 -1.489,0.602 -1.981,0.602 -0.492,0 -1.249,-0.306 -1.981,-0.602 -0.878,-0.356 -1.787,-0.724 -2.576,-0.724 -1.109,0 -2.392,1.361 -3.749,2.801 -0.646,0.685 -1.256,1.331 -1.748,1.714 -0.985,0.766 -2.926,1.414 -4.239,1.414 -0.486,0 -0.678,-0.095 -0.726,-0.124 C 8.65,24.83 8.329,24.726 8.026,24.726 c -0.428,0 -0.789,0.224 -0.942,0.584 -0.189,0.444 -0.032,0.99 0.42,1.46 1.429,1.483 4.693,2.334 8.957,2.334 2.799,0 5.326,-1.469 6.758,-2.843 0.291,-0.279 0.669,-0.293 0.742,-0.293 h 0.003 l 0.013,0.005 0.052,-0.005 h 0.01 c 0.073,0 0.452,0.014 0.742,0.293 1.432,1.374 3.959,2.843 6.758,2.843 4.264,0 7.528,-0.851 8.957,-2.334 0.452,-0.47 0.609,-1.016 0.42,-1.46 -0.153,-0.36 -0.514,-0.584 -0.942,-0.584 z"
       inkscape:connector-curvature="0"
       style="fill:url(#_lgradient_16);fill-rule:evenodd" />
  </g>
</svg>

<?xml version="1.0" encoding="UTF-8" standalone="no"?>
<!-- Generator: Gravit.io -->
<svg xmlns="http://www.w3.org/2000/svg" xmlns:xlink="http://www.w3.org/1999/xlink" style="isolation:isolate" viewBox="0 0 48 48" width="48pt" height="48pt"><linearGradient id="_lgradient_16" x1="-0.000038208333333289435" y1="0.5000000833333331" x2="0.9999618333333335" y2="0.5000000833333331" gradientTransform="matrix(48,0,0,48,0,0)" gradientUnits="userSpaceOnUse"><stop offset="0%" stop-opacity="1" style="stop-color:rgb(0,198,255)"/><stop offset="98.69565217391305%" stop-opacity="1" style="stop-color:rgb(0,114,255)"/></linearGradient><path d=" M 30.22 4.99 L 30.22 4.99 C 31.269 5.332 32.398 4.759 32.74 3.71 L 32.74 3.71 C 33.082 2.661 32.509 1.532 31.46 1.19 L 31.46 1.19 C 29.06 0.4 26.55 0 24.03 0 C 15.68 0 7.9 4.34 3.54 11.46 C 1.23 15.22 0 19.56 0 23.97 C 0 32.32 4.34 40.1 11.46 44.46 C 15.22 46.77 19.55 48 23.97 48 C 32.32 48 40.1 43.66 44.46 36.54 C 46.77 32.78 48 28.45 48 24.03 C 48 18.39 46.02 12.92 42.41 8.59 L 42.41 8.59 C 41.698 7.746 40.432 7.634 39.585 8.34 L 39.585 8.34 C 38.738 9.046 38.628 10.31 39.34 11.16 L 39.34 11.16 C 42.35 14.77 44 19.32 44 24.03 C 44 27.7 42.98 31.31 41.05 34.45 C 37.41 40.38 30.93 44 23.97 44 C 20.29 44 16.69 42.98 13.55 41.05 C 7.62 37.41 4 30.93 4 23.97 C 4 20.3 5.02 16.69 6.95 13.55 C 10.59 7.62 17.07 4 24.03 4 C 26.13 4 28.22 4.33 30.22 4.99 L 30.22 4.99 L 30.22 4.99 L 30.22 4.99 L 30.22 4.99 Z  M 31.539 30.669 C 31.178 30.669 30.815 30.649 30.453 30.608 L 30.453 33.026 C 30.453 33.792 31.27 34.2 32.394 34.2 C 33.518 34.2 36.072 34.405 37.094 32.617 C 37.619 31.697 37.955 30.67 38.158 29.809 C 36.371 30.372 34.13 30.669 31.539 30.669 L 31.539 30.669 L 31.539 30.669 L 31.539 30.669 L 31.539 30.669 Z  M 35.015 22.509 C 35.719 23.057 37.267 23.574 38.24 23.593 C 38.131 21.033 38.013 18.149 38.013 17.19 C 38.013 15.402 38.065 13.793 37.502 13.793 C 36.072 13.793 36.43 19.999 34.642 21.532 C 34.53 21.628 34.415 21.733 34.299 21.848 C 34.569 22.12 34.817 22.355 35.015 22.509 L 35.015 22.509 L 35.015 22.509 L 35.015 22.509 Z  M 10.161 23.562 C 11.117 23.441 12.372 22.986 12.985 22.509 C 13.229 22.319 13.549 22.007 13.893 21.652 C 13.848 21.611 13.802 21.57 13.758 21.532 C 11.97 19.999 12.327 13.792 10.897 13.792 C 10.335 13.792 10.386 15.402 10.386 17.19 C 10.386 18.145 10.269 21.01 10.161 23.562 L 10.161 23.562 L 10.161 23.562 Z  M 16.461 30.669 C 14.074 30.669 11.984 30.418 10.273 29.938 C 10.478 30.771 10.806 31.743 11.306 32.617 C 12.327 34.405 14.882 34.2 16.005 34.2 C 17.129 34.2 17.947 33.792 17.947 33.026 L 17.947 30.556 C 17.451 30.631 16.955 30.669 16.461 30.669 L 16.461 30.669 Z  M 39.974 24.726 C 39.671 24.726 39.35 24.83 39.019 25.035 C 38.971 25.064 38.779 25.159 38.293 25.159 C 36.98 25.159 35.039 24.512 34.054 23.745 C 33.562 23.362 32.952 22.715 32.306 22.031 C 30.949 20.591 29.666 19.23 28.557 19.23 C 27.768 19.23 26.86 19.598 25.981 19.954 C 25.249 20.25 24.492 20.556 24 20.556 C 23.508 20.556 22.751 20.25 22.019 19.954 C 21.141 19.598 20.232 19.23 19.443 19.23 C 18.334 19.23 17.051 20.591 15.694 22.031 C 15.048 22.716 14.438 23.362 13.946 23.745 C 12.961 24.511 11.02 25.159 9.707 25.159 C 9.221 25.159 9.029 25.064 8.981 25.035 C 8.65 24.83 8.329 24.726 8.026 24.726 C 7.598 24.726 7.237 24.95 7.084 25.31 C 6.895 25.754 7.052 26.3 7.504 26.77 C 8.933 28.253 12.197 29.104 16.461 29.104 C 19.26 29.104 21.787 27.635 23.219 26.261 C 23.51 25.982 23.888 25.968 23.961 25.968 L 23.964 25.968 L 23.977 25.973 L 24.029 25.968 L 24.039 25.968 C 24.112 25.968 24.491 25.982 24.781 26.261 C 26.213 27.635 28.74 29.104 31.539 29.104 C 35.803 29.104 39.067 28.253 40.496 26.77 C 40.948 26.3 41.105 25.754 40.916 25.31 C 40.763 24.95 40.402 24.726 39.974 24.726 L 39.974 24.726 Z " fill-rule="evenodd" fill="url(#_lgradient_16)"/></svg>
